X: 7
T: Leitrim Fancy, The
Z: luddite
S: https://thesession.org/tunes/467#setting47759
R: jig
M: 6/8
L: 1/8
K: Emin
|:"Em"GBG "D"FAF|"Em"E2B BAB|"C"GBG FAF|"D"D2A AFD|
"Em"GBG "D"FAF|"Em"E2B BAB|"C"G2B dBG|"D"ABG FED:|
|:"G"G2B dBd|edB dBA|"C"G2B dBG|"D"ABG FED|
"G"G2B dBd|edB "Bm"def|"C"gfe dcB|"D"ABG FED:|

